icons/svg/shields/h_generator_oil_shield.svg

<?xml version="1.0" encoding="UTF-8" standalone="no"?>
<!-- Created with Inkscape (http://www.inkscape.org/) -->

<svg
   xmlns:dc="http://purl.org/dc/elements/1.1/"
   xmlns:cc="http://creativecommons.org/ns#"
   xmlns:rdf="http://www.w3.org/1999/02/22-rdf-syntax-ns#"
   xmlns:svg="http://www.w3.org/2000/svg"
   xmlns="http://www.w3.org/2000/svg"
   xmlns:sodipodi="http://sodipodi.sourceforge.net/DTD/sodipodi-0.dtd"
   xmlns:inkscape="http://www.inkscape.org/namespaces/inkscape"
   version="1.0"
   width="16"
   height="16"
   id="svg2"
   sodipodi:version="0.32"
   inkscape:version="0.91 r13725"
   sodipodi:docname="h_generator_oil_shield.svg"
   inkscape:output_extension="org.inkscape.output.svg.inkscape">
  <metadata
     id="metadata10">
    <rdf:RDF>
      <cc:Work
         rdf:about="">
        <dc:format>image/svg+xml</dc:format>
        <dc:type
           rdf:resource="http://purl.org/dc/dcmitype/StillImage" />
        <cc:license
           rdf:resource="http://web.resource.org/cc/PublicDomain" />
        <dc:language>en</dc:language>
        <dc:title />
      </cc:Work>
    </rdf:RDF>
  </metadata>
  <sodipodi:namedview
     inkscape:window-height="1006"
     inkscape:window-width="1920"
     inkscape:pageshadow="2"
     inkscape:pageopacity="0.0"
     guidetolerance="10.0"
     gridtolerance="10.0"
     objecttolerance="10.0"
     borderopacity="1.0"
     bordercolor="#666666"
     pagecolor="#ffffff"
     id="base"
     showgrid="false"
     inkscape:zoom="32"
     inkscape:cx="5.1571286"
     inkscape:cy="8.6674799"
     inkscape:window-x="1920"
     inkscape:window-y="0"
     inkscape:current-layer="svg2"
     inkscape:window-maximized="1"
     showguides="true"
     inkscape:guide-bbox="true" />
  <defs
     id="defs4">
    <inkscape:perspective
       sodipodi:type="inkscape:persp3d"
       inkscape:vp_x="0 : 290 : 1"
       inkscape:vp_y="0 : 1000 : 0"
       inkscape:vp_z="580 : 290 : 1"
       inkscape:persp3d-origin="290 : 193.33333 : 1"
       id="perspective12" />
    <style
       type="text/css"
       id="style6">
   
    .fil0 {fill:#EF7900}
   
  </style>
    <inkscape:perspective
       id="perspective6807"
       inkscape:persp3d-origin="29.116032 : 19.410688 : 1"
       inkscape:vp_z="58.232063 : 29.116032 : 1"
       inkscape:vp_y="0 : 1000 : 0"
       inkscape:vp_x="0 : 29.116032 : 1"
       sodipodi:type="inkscape:persp3d" />
    <inkscape:perspective
       id="perspective6954"
       inkscape:persp3d-origin="290 : 193.33333 : 1"
       inkscape:vp_z="580 : 290 : 1"
       inkscape:vp_y="0 : 1000 : 0"
       inkscape:vp_x="0 : 290 : 1"
       sodipodi:type="inkscape:persp3d" />
    <inkscape:perspective
       id="perspective2541"
       inkscape:persp3d-origin="240 : 160 : 1"
       inkscape:vp_z="480 : 240 : 1"
       inkscape:vp_y="0 : 1000 : 0"
       inkscape:vp_x="0 : 240 : 1"
       sodipodi:type="inkscape:persp3d" />
    <inkscape:perspective
       id="perspective2750"
       inkscape:persp3d-origin="215 : 143.33333 : 1"
       inkscape:vp_z="430 : 215 : 1"
       inkscape:vp_y="0 : 1000 : 0"
       inkscape:vp_x="0 : 215 : 1"
       sodipodi:type="inkscape:persp3d" />
    <inkscape:perspective
       id="perspective3730"
       inkscape:persp3d-origin="88.929146 : 101.19778 : 1"
       inkscape:vp_z="177.85829 : 151.79668 : 1"
       inkscape:vp_y="0 : 1000 : 0"
       inkscape:vp_x="0 : 151.79668 : 1"
       sodipodi:type="inkscape:persp3d" />
  </defs>
  <path
     style="color:#000000;display:inline;overflow:visible;visibility:visible;fill:#ebe7e4;fill-opacity:1;fill-rule:nonzero;stroke:none;stroke-width:0.78325456;marker:none;enable-background:accumulate;clip-rule:nonzero;opacity:0.81199999;isolation:auto;mix-blend-mode:normal;color-interpolation:sRGB;color-interpolation-filters:linearRGB;solid-color:#000000;solid-opacity:1;stroke-linecap:butt;stroke-linejoin:miter;stroke-miterlimit:4;stroke-dasharray:none;stroke-dashoffset:0;stroke-opacity:1;filter-blend-mode:normal;filter-gaussianBlur-deviation:0;color-rendering:auto;image-rendering:auto;shape-rendering:auto;text-rendering:auto"
     d="m 4.8928127,1.912215 c -0.1863708,0.041218 -0.3501039,0.1742509 -0.4286,0.3482375 L 1.7586752,7.64474 C 1.5771635,8.0207638 1.9037038,8.5338986 2.3212127,8.5287275 l 1.767975,0 -1.875125,4.0717005 c -0.1333156,0.272008 -0.027628,0.637186 0.2303577,0.795947 0.2579858,0.158761 0.6316098,0.08854 0.8143548,-0.153047 L 8.4287627,6.733965 C 8.7055297,6.3731184 8.4013244,5.7478075 7.9465877,5.7428275 l -1.82155,0 1.7411875,-2.89305 C 8.0951152,2.4754972 7.7691378,1.9050367 7.3304752,1.912215 l -2.303725,0 c -0.044469,-0.00486 -0.089468,-0.00486 -0.1339375,0 z m 6.5093623,4.9556875 c -0.916173,0 -1.7554316,0.1534753 -2.4108748,0.4553875 -0.6554433,0.3019122 -1.232225,0.8094745 -1.232225,1.553675 0,0.2113595 0.168912,0.3540713 0.267875,0.53575 0.00398,0.0073 -0.0041,0.019561 0,0.026787 l 0,0.7768375 c -0.1046205,0.193335 -0.267875,0.350401 -0.267875,0.589325 0,0.24292 0.1638797,0.381475 0.267875,0.562538 0.00818,0.01423 -0.00844,0.03978 0,0.05358 l 0,0.75005 c -0.1046205,0.193335 -0.267875,0.350401 -0.267875,0.589325 0,0.3721 0.1719576,0.716806 0.4018125,0.96435 0.2298548,0.247543 0.5294548,0.415585 0.8572,0.562537 0.6554903,0.293905 1.4711883,0.455388 2.3840873,0.455388 0.912899,0 1.728597,-0.161483 2.384088,-0.455388 0.327745,-0.146952 0.627345,-0.314994 0.8572,-0.562537 0.229854,-0.247544 0.401812,-0.59225 0.401812,-0.96435 0,-0.303705 -0.168344,-0.456484 -0.294662,-0.6429 l 0,-0.696475 c 0.12755,-0.18691 0.294662,-0.330155 0.294662,-0.616113 0,-0.299231 -0.167909,-0.454489 -0.294662,-0.6429 l 0,-0.7232625 0,-0.026787 c 0.110447,-0.1775263 0.294662,-0.2951743 0.294662,-0.53575 0,-0.7442002 -0.576781,-1.2517628 -1.232225,-1.553675 C 13.157607,7.0213778 12.318348,6.8679025 11.402175,6.8679025 Z"
     id="path4294"
     inkscape:connector-curvature="0"
     sodipodi:nodetypes="ccccccsccccccccssscccscccsssssssccscccsss" />
</svg>

<svg width="16" height="16" viewBox="0 0 16 16" fill="none" xmlns="http://www.w3.org/2000/svg">
<path opacity="0.812" d="M4.89281 1.91221C4.70644 1.95343 4.54271 2.08647 4.46421 2.26045L1.75867 7.64474C1.57716 8.02076 1.9037 8.5339 2.32121 8.52873H4.08919L2.21406 12.6004C2.08075 12.8724 2.18643 13.2376 2.44442 13.3964C2.7024 13.5551 3.07603 13.4849 3.25877 13.2433L8.42876 6.73396C8.70553 6.37312 8.40132 5.74781 7.94659 5.74283H6.12504L7.86622 2.84978C8.09511 2.4755 7.76914 1.90504 7.33047 1.91221H5.02675C4.98228 1.90735 4.93728 1.90735 4.89281 1.91221ZM11.4022 6.8679C10.486 6.8679 9.64674 7.02138 8.9913 7.32329C8.33586 7.6252 7.75907 8.13276 7.75907 8.87696C7.75907 9.08832 7.92799 9.23104 8.02695 9.41271C8.03093 9.42001 8.02285 9.43228 8.02695 9.4395V10.2163C7.92233 10.4097 7.75907 10.5667 7.75907 10.8057C7.75907 11.0486 7.92295 11.1871 8.02695 11.3682C8.03513 11.3824 8.01851 11.408 8.02695 11.4218V12.1718C7.92233 12.3652 7.75907 12.5222 7.75907 12.7612C7.75907 13.1333 7.93103 13.478 8.16089 13.7255C8.39074 13.973 8.69034 14.1411 9.01809 14.288C9.67358 14.5819 10.4893 14.7434 11.4022 14.7434C12.3151 14.7434 13.1308 14.5819 13.7863 14.288C14.114 14.1411 14.4136 13.973 14.6435 13.7255C14.8733 13.478 15.0453 13.1333 15.0453 12.7612C15.0453 12.4575 14.8769 12.3047 14.7506 12.1183V11.4218C14.8782 11.2349 15.0453 11.0916 15.0453 10.8057C15.0453 10.5064 14.8774 10.3512 14.7506 10.1628V9.43951V9.41272C14.8611 9.23519 15.0453 9.11755 15.0453 8.87697C15.0453 8.13277 14.4685 7.62521 13.813 7.32329C13.1576 7.02138 12.3183 6.8679 11.4022 6.8679Z" fill="#EBE7E4"/>
</svg>
